material/.icons/material/alert-circle-check-outline.svg

<svg xmlns="http://www.w3.org/2000/svg" viewBox="0 0 24 24"><path d="M18.75 22.16l-2.75-3L17.16 18l1.59 1.59L22.34 16l1.16 1.41-4.75 4.75M11 15h2v2h-2v-2m0-8h2v6h-2V7m1-5c5.5 0 10 4.5 10 10l-.08 1.31c-.61-.2-1.25-.31-1.98-.31l.06-1c0-4.42-3.58-8-8-8s-8 3.58-8 8 3.58 8 8 8c.71 0 1.39-.09 2.05-.26.08.68.28 1.32.57 1.91-.84.23-1.72.35-2.62.35-5.53 0-10-4.5-10-10S6.47 2 12 2z"/></svg>

<?xml version="1.0" encoding="UTF-8"?><!DOCTYPE svg PUBLIC "-//W3C//DTD SVG 1.1//EN" "http://www.w3.org/Graphics/SVG/1.1/DTD/svg11.dtd"><svg xmlns="http://www.w3.org/2000/svg" xmlns:xlink="http://www.w3.org/1999/xlink" version="1.1" id="mdi-alert-circle-check-outline" width="24" height="24" viewBox="0 0 24 24"><path d="M18.75 22.16L16 19.16L17.16 18L18.75 19.59L22.34 16L23.5 17.41L18.75 22.16M11 15H13V17H11V15M11 7H13V13H11V7M12 2C17.5 2 22 6.5 22 12L21.92 13.31C21.31 13.11 20.67 13 19.94 13L20 12C20 7.58 16.42 4 12 4C7.58 4 4 7.58 4 12C4 16.42 7.58 20 12 20C12.71 20 13.39 19.91 14.05 19.74C14.13 20.42 14.33 21.06 14.62 21.65C13.78 21.88 12.9 22 12 22C6.47 22 2 17.5 2 12C2 6.5 6.47 2 12 2Z" /></svg>
